X:2208
T:Winding song 
C:Traditional
O:Isle of Man
Z:Clague collection
B:Kiaull Vannin #208 
L:1/8
M:6/8 
Q:160 
K:G 
GGG Bcd|GGG Bcd|GGG BcB|A3 FG2|GGG Bcd|GGG Bcd|GGG BcB|A2F G3| 
g2d e2d|g2d e2d|def gfe|dcB A2g|fed c2c|BAB c2c|BdG c2B|AGF G3|| 

